X:30
T: Classical Hornpipe
C: BB
R: hornpipe
Q: 1/8=320
M: 4/4
L: 1/8
K: Dm
cB|"Dm"A2 BA "C"G2 AG|"Dm"FDDC DCA,G,|"Am"A,CDE "F"FAcA|"Dm"defa "C7"gecB |
"Dm"A2 BA "C"G2 AG|"F"FAce f3 g|"Dm"afef "Gm"dBGB|"Dm"AFEC D2 :|
DE|"F"FAcA "Gm"GBdB|"Am"Acec abag|"Dm7"fdcd "Am"ecAc|"Dm"dAAG FEDE |
"F"FA (3AGA "Gm"GB (3BcB|"Am"Ac(3c^Bc agfe|"Dm7"fdec "Gm"dBAG|\
"Dm"FD"C"EC "Dm"D2 :|
